X:288
T: Der Kuckuck auf dem Tore (3-90), S. 249
N: P1063
O: Lothringen
S: PINCK, Louis: Verklingende Weisen, Bd3, Metz 1933]
R: Trinklied, Liebeslied]
M: 4/4
L: 1/8
K: Bb
F2 | B2F2B2c2 | d4c4 |
BBB2G2A2 | BBc2ccc2 | F2F2F2
F2 | B2F2B2c2 | d4c4 | B6

@@@ Tune index: 7838
